X:1
T:Title
%%score { ( 1 2 ) | ( 3 4 ) }
L:1/8
Q:1/4=100
M:6/8
K:Db
V:1 treble nm="Grand Piano"
V:2 treble 
V:3 bass 
V:4 bass 
V:1
 [FA]3 z3 | .[FA]3 [DF]3 | [Fd]3 .[DF]3 | [FA]6 | [EG]3 z3 | .[DF]3 [FA]3 | %6
w: W.~J.~Kirkpatrick||||||
 [CE]3 [=G,B,E][CE][DE] | [CE]6 | [FA]3 z3 | .[FA]3 [DF]3 | [Fd]3 .[Fd]3 | [GB]6[K:bass] | %12
w: ||||||
 [FA]3 z3 | .[Ac]3 [FA]3 | [EG]3 [EG]FE | D6 | .A3 ABc | [Fd]3 [FA]3 | B2 B BAG | F6 | F3 .[EF]3 | %21
w: |||||||||
 [DB]3 .[DF]3 | .[=Gd]6 |[M:7/8] [EA-]3 A3 z |[M:3/4] [FA]2 z [FA] [GB][Gc] | [Fd]3 [FA]3 | %26
w: |||||
 [GB]2 [GB][=GB] [Gc][Gd] | c6 | d2 dd cB | A3 .F3 | %30
w: ||||
 e4 z2[Q:1/4=97][Q:1/4=94][Q:1/4=91][Q:1/4=88][Q:1/4=84][Q:1/4=81][Q:1/4=78] | d6 |] %32
w: ||
V:2
 z A,A, [_F=G][A,=FA][_GB] | z A,[A,EG] z A,A, | z A,A, z A,[GB] | z A,A, z A,A, | %4
 z A,A, [CE][A,DF][A,EG] | z A,[A,EG] z A,A, | x6 | A,3 A,3 | z A,A, [_F=G][A,=FA][_GB] | %9
 z A,[A,EG] z A,A, | z A,A, z A,[Ac] | z[K:bass] G,G, z G,G, | z A,A, FAd | z B,[B,GB] z A,A, | %14
 x6 | x6 | x6 | x6 | x6 | x6 | z =A,A, CCF | B,B,B, B,B,F | z B,B, B,[C=Gc][DGB] | %23
[M:7/8] CCC G3 z |[M:3/4] x6 | x6 | x6 | x6 | x6 | x6 | z G z =G [GB]c | FA G F3 |] %32
V:3
 D,F,F, D,F,[F,A,] | D,F,F, D,F,F, | D,F,F, D,F,[F,A,] | D,F,F, D,F,F, | A,,E,E, A,,E,E, | %5
 D,F,F, D,F,F, | E,A,A, z A,B, | A,,3 G,3 | D,F,F, D,F,[F,A,] | D,F,F, D,F,F, | D,F,F, D,F,[F,A,] | %11
 G,,D,D, G,,D,D, | D,F,F, [D,D][F,A,F][F,A,F] | D,G,G, D,F,F, | A,,A,A, A,,[A,D][G,C] | [D,F,A,]6 | %16
 .[A,CE]3 [A,CG][A,DG][A,EG] | [E,D]3 [D,D]3 | [G,CG]2 [G,DG] [G,D][F,A,D][E,A,C] | [D,A,D]6 | %20
 C-[F,C-][F,C] F,F,E | B,,B,,B,, B,, .B,,2 | [E,B,]E,E, E,E,E, |[M:7/8] A,,C,E, [A,E]3 z | %24
[M:3/4] [D,D]2 z [D,D] [D,D][D,A,] | [D,A,]3 [D,D]3 | [G,D]2 [G,E][E,E] [E,E][E,E] | [A,EA]6 | %28
 D2 DD C[K:bass]B, | A,3 .F,3 | [G,B,G][G,B,] z [E,B,] [E,E][A,G] | A,C B, A,3 |] %32
V:4
 x6 | x6 | x6 | x6 | x6 | x6 | z3 E,3 | x6 | x6 | x6 | x6 | x6 | x6 | x6 | x6 | x6 | x6 | x6 | x6 | %19
 x6 | .[F,=A,]3 z3 | x6 | x6 |[M:7/8] x7 |[M:3/4] x6 | x6 | x6 | x6 | x5[K:bass] x | x6 | x6 | %31
 D,6 |] %32

